front/public/static/landing/logos/gray/alan.svg

<svg fill="none" height="262" viewBox="0 0 600 262" width="600" xmlns="http://www.w3.org/2000/svg" xmlns:xlink="http://www.w3.org/1999/xlink"><mask id="a" height="260" maskUnits="userSpaceOnUse" width="520" x="40" y="1"><path d="m560.001 1.2478h-520.001v259.5042h520.001z" fill="#fff"/></mask><mask id="b" height="260" maskUnits="userSpaceOnUse" width="520" x="40" y="1"><path d="m560.001 1.2478h-520.001v259.5042h520.001z" fill="#fff"/></mask><g mask="url(#a)"><g mask="url(#b)"><path d="m323.664 114.779h-12.75c-.521 0-1.021.208-1.388.578-.369.37-.575.873-.575 1.397v4.765c-3.109-4.691-8.734-7.817-15.335-7.817-14.748 0-24.164 11.623-24.164 26.279 0 14.95 9.808 26.48 24.261 26.48 7.087 0 12.036-3.032 15.238-8.014v4.937c0 .525.206 1.027.575 1.398.367.37.867.577 1.388.577h12.75c.521 0 1.02-.207 1.387-.577.369-.371.575-.873.575-1.398v-46.625c.001-.26-.05-.517-.148-.757-.098-.241-.243-.459-.425-.643s-.399-.33-.637-.429c-.238-.1-.494-.151-.752-.151zm-25.992 38.513c-7.083 0-11.453-5.865-11.453-13.292 0-7.13 4.174-12.99 11.281-12.99 7.106 0 11.839 5.371 11.839 13.479-.01 7.999-5.057 12.788-11.658 12.788zm115.143-38.513h-12.75c-.522 0-1.02.208-1.388.578-.367.37-.574.873-.574 1.397v4.765c-3.105-4.691-8.73-7.817-15.333-7.817-14.746 0-24.162 11.623-24.162 26.279 0 14.95 9.808 26.48 24.263 26.48 7.08 0 12.034-3.032 15.232-8.014v4.937c0 .525.207 1.027.574 1.398.368.37.866.577 1.388.577h12.75c.521 0 1.02-.207 1.387-.577.368-.371.574-.873.574-1.398v-46.625c.004-.523-.203-1.026-.57-1.397-.364-.371-.863-.58-1.38-.583zm-25.992 38.513c-7.083 0-11.452-5.865-11.452-13.292 0-7.13 4.174-12.99 11.28-12.99s11.835 5.371 11.835 13.479c0 7.999-5.029 12.788-11.644 12.788zm-31.766-.089h-2.639c-2.089-.069-3.011-1.669-3.011-3.831v-.988-50.6647c0-.524-.207-1.0259-.574-1.3961-.369-.3709-.868-.5787-1.388-.5787h-12.398c-.52 0-1.019.2078-1.387.5787-.368.3702-.575.8721-.575 1.3961v50.7587c0 14.531 9.275 17.904 17.97 17.904 1.197 0 2.344-.079 4.178-.232.494-.039.954-.264 1.29-.63s.521-.847.52-1.345v-9.007c0-.26-.05-.518-.148-.758-.099-.241-.244-.46-.426-.643-.183-.184-.401-.33-.639-.429-.239-.099-.495-.15-.754-.15zm98.798-39.501c-6.402 0-11.355 2.341-14.944 7.718v-4.666c0-.524-.206-1.027-.574-1.397-.367-.37-.866-.578-1.387-.578h-12.75c-.522 0-1.02.208-1.388.578-.367.37-.577.873-.577 1.397v46.65c0 .525.21 1.026.577 1.397.368.371.866.578 1.388.578h12.75c.521 0 1.02-.207 1.387-.578.368-.371.574-.872.574-1.397v-25.369c0-5.767 2.036-10.863 8.051-10.863 6.116 0 7.961 5.96 7.961 10.863v25.374c0 .524.207 1.026.574 1.396.368.371.87.58 1.388.58h12.753c.518 0 1.017-.209 1.388-.58.367-.37.574-.872.574-1.396v-26.351c.037-11.056-3.068-23.351-17.727-23.351zm-237.576 32.213c-4.252-1.925-9.965 1.359-14.796 2.154-5.608 1.033-11.356 1.033-16.964 0-4.826-.795-10.54-4.075-14.792-2.154-2.158.988-2.82 3.377-1.962 6.236.639 1.98 1.752 3.772 3.242 5.215 3.07 2.929 6.674 5.233 10.614 6.784 3.597 1.528 7.463 2.315 11.368 2.315s7.77-.787 11.368-2.315c3.936-1.554 7.538-3.857 10.608-6.784 1.494-1.436 2.614-3.22 3.261-5.195.873-2.879.211-5.278-1.947-6.256zm41.373-36.395c0-.069 0-.143 0-.212 0-.212-.029-.425-.049-.637v-.049c0-.237-.054-.494-.083-.707v-.078c-.03-.213-.064-.42-.103-.633v-.073c-.044-.213-.089-.425-.138-.638.001-.011.001-.022 0-.035-1.363-5.767-5.831-10.447-11.77-11.5481-8.019-1.4811-15.694 4.1426-17.116 12.5661-.03.194-.054.386-.074.578-.49 4.592 2.501 8.853 6.866 9.668 1.582.297 3.214.109 4.689-.539.592-.26 1.248-.335 1.884-.22.635.116 1.222.42 1.686.872 1.17 1.144 2.649 1.915 4.252 2.217 4.576.85 8.941-2.355 9.75-7.164.12-.731.192-1.468.216-2.207 0-.089 0-.183 0-.272s0-.118 0-.173 0-.138 0-.202c0-.173-.005-.326-.01-.514zm-64.649-12.6103c-16.184 0-26.253 5.7473-26.253 14.9953 0 10.784 10.3 25.503 26.253 25.503 15.694 0 26.253-14.882 26.253-25.503 0-9.391-9.814-14.9953-26.253-14.9953zm-35.365 10.5663c-1.422-8.4235-9.097-14.0618-17.115-12.5661-5.916 1.1011-10.383 5.7811-11.747 11.5481v.035c-.049.213-.093.425-.137.638v.073c-.039.213-.074.42-.103.633-.003.025-.003.052 0 .078-.034.233-.064.47-.088.707v.049c0 .217-.035.43-.05.642v.207.494.202.173.272c.024.74.097 1.477.216 2.207.814 4.809 5.18 8.014 9.75 7.164 1.604-.301 3.082-1.072 4.252-2.217.464-.452 1.052-.756 1.687-.872.636-.115 1.291-.039 1.884.221 1.473.648 3.107.835 4.688.538 4.414-.815 7.357-5.076 6.89-9.668-.055-.178-.097-.364-.127-.558z" fill="#364153"/></g></g></svg>

<svg width="600" height="262" viewBox="0 0 600 262" fill="none" xmlns="http://www.w3.org/2000/svg">
<mask id="mask0_1904_3288" style="mask-type:luminance" maskUnits="userSpaceOnUse" x="40" y="1" width="520" height="260">
<path d="M560.001 1.2478H40V260.752H560.001V1.2478Z" fill="white"/>
</mask>
<g mask="url(#mask0_1904_3288)">
<mask id="mask1_1904_3288" style="mask-type:luminance" maskUnits="userSpaceOnUse" x="40" y="1" width="520" height="260">
<path d="M560.001 1.2478H40V260.752H560.001V1.2478Z" fill="white"/>
</mask>
<g mask="url(#mask1_1904_3288)">
<path d="M323.664 114.779H310.914C310.393 114.779 309.893 114.987 309.526 115.357C309.157 115.727 308.951 116.23 308.951 116.754V121.519C305.842 116.828 300.217 113.702 293.616 113.702C278.868 113.702 269.452 125.325 269.452 139.981C269.452 154.931 279.26 166.461 293.713 166.461C300.8 166.461 305.749 163.429 308.951 158.447V163.384C308.951 163.909 309.157 164.411 309.526 164.782C309.893 165.152 310.393 165.359 310.914 165.359H323.664C324.185 165.359 324.684 165.152 325.051 164.782C325.42 164.411 325.626 163.909 325.626 163.384V116.759C325.627 116.499 325.576 116.242 325.478 116.002C325.38 115.761 325.235 115.543 325.053 115.359C324.871 115.175 324.654 115.029 324.416 114.93C324.178 114.83 323.922 114.779 323.664 114.779ZM297.672 153.292C290.589 153.292 286.219 147.427 286.219 140C286.219 132.87 290.393 127.01 297.5 127.01C304.606 127.01 309.339 132.381 309.339 140.489C309.329 148.488 304.282 153.277 297.681 153.277L297.672 153.292ZM412.815 114.779H400.065C399.543 114.779 399.045 114.987 398.677 115.357C398.31 115.727 398.103 116.23 398.103 116.754V121.519C394.998 116.828 389.373 113.702 382.77 113.702C368.024 113.702 358.608 125.325 358.608 139.981C358.608 154.931 368.416 166.461 382.871 166.461C389.951 166.461 394.905 163.429 398.103 158.447V163.384C398.103 163.909 398.31 164.411 398.677 164.782C399.045 165.152 399.543 165.359 400.065 165.359H412.815C413.336 165.359 413.835 165.152 414.202 164.782C414.57 164.411 414.776 163.909 414.776 163.384V116.759C414.78 116.236 414.573 115.733 414.206 115.362C413.842 114.991 413.343 114.782 412.826 114.779H412.815ZM386.823 153.292C379.74 153.292 375.371 147.427 375.371 140C375.371 132.87 379.545 127.01 386.651 127.01C393.757 127.01 398.486 132.381 398.486 140.489C398.486 148.488 393.457 153.277 386.842 153.277L386.823 153.292ZM355.057 153.203H352.418C350.329 153.134 349.407 151.534 349.407 149.372V148.384V97.7193C349.407 97.1953 349.2 96.6934 348.833 96.3232C348.464 95.9523 347.965 95.7445 347.445 95.7445H335.047C334.527 95.7445 334.028 95.9523 333.66 96.3232C333.292 96.6934 333.085 97.1953 333.085 97.7193V148.478C333.085 163.009 342.36 166.382 351.055 166.382C352.252 166.382 353.399 166.303 355.233 166.15C355.727 166.111 356.187 165.886 356.523 165.52C356.859 165.154 357.044 164.673 357.043 164.175V155.168C357.043 154.908 356.993 154.65 356.895 154.41C356.796 154.169 356.651 153.95 356.469 153.767C356.286 153.583 356.068 153.437 355.83 153.338C355.591 153.239 355.335 153.188 355.076 153.188L355.057 153.203ZM453.855 113.702C447.453 113.702 442.5 116.043 438.911 121.42V116.754C438.911 116.23 438.705 115.727 438.337 115.357C437.97 114.987 437.471 114.779 436.95 114.779H424.2C423.678 114.779 423.18 114.987 422.812 115.357C422.445 115.727 422.235 116.23 422.235 116.754V163.404C422.235 163.929 422.445 164.43 422.812 164.801C423.18 165.172 423.678 165.379 424.2 165.379H436.95C437.471 165.379 437.97 165.172 438.337 164.801C438.705 164.43 438.911 163.929 438.911 163.404V138.035C438.911 132.268 440.947 127.172 446.962 127.172C453.078 127.172 454.923 133.132 454.923 138.035V163.409C454.923 163.933 455.13 164.435 455.497 164.805C455.865 165.176 456.367 165.385 456.885 165.385H469.638C470.156 165.385 470.655 165.176 471.026 164.805C471.393 164.435 471.6 163.933 471.6 163.409V137.058C471.637 126.002 468.532 113.707 453.873 113.707L453.855 113.702ZM216.279 145.915C212.027 143.99 206.314 147.274 201.483 148.069C195.875 149.102 190.127 149.102 184.519 148.069C179.693 147.274 173.979 143.994 169.727 145.915C167.569 146.903 166.907 149.292 167.765 152.151C168.404 154.131 169.517 155.923 171.007 157.366C174.077 160.295 177.681 162.599 181.621 164.15C185.218 165.678 189.084 166.465 192.989 166.465C196.894 166.465 200.759 165.678 204.357 164.15C208.293 162.596 211.895 160.293 214.965 157.366C216.459 155.93 217.579 154.146 218.226 152.171C219.099 149.292 218.437 146.893 216.279 145.915ZM257.652 109.52C257.652 109.451 257.652 109.377 257.652 109.308C257.652 109.096 257.623 108.883 257.603 108.671V108.622C257.603 108.385 257.549 108.128 257.52 107.915V107.837C257.49 107.624 257.456 107.417 257.417 107.204V107.131C257.373 106.918 257.328 106.706 257.279 106.493C257.28 106.482 257.28 106.471 257.279 106.458C255.916 100.691 251.448 96.011 245.509 94.9099C237.49 93.4288 229.815 99.0525 228.393 107.476C228.363 107.67 228.339 107.862 228.319 108.054C227.829 112.646 230.82 116.907 235.185 117.722C236.767 118.019 238.399 117.831 239.874 117.183C240.466 116.923 241.122 116.848 241.758 116.963C242.393 117.079 242.98 117.383 243.444 117.835C244.614 118.979 246.093 119.75 247.696 120.052C252.272 120.902 256.637 117.697 257.446 112.888C257.566 112.157 257.638 111.42 257.662 110.681C257.662 110.592 257.662 110.498 257.662 110.409C257.662 110.32 257.662 110.291 257.662 110.236C257.662 110.181 257.662 110.098 257.662 110.034C257.662 109.861 257.657 109.708 257.652 109.52ZM193.003 96.9097C176.819 96.9097 166.75 102.657 166.75 111.905C166.75 122.689 177.05 137.408 193.003 137.408C208.697 137.408 219.256 122.526 219.256 111.905C219.256 102.514 209.442 96.9097 193.003 96.9097ZM157.638 107.476C156.216 99.0525 148.541 93.4142 140.523 94.9099C134.607 96.011 130.14 100.691 128.776 106.458V106.493C128.727 106.706 128.683 106.918 128.639 107.131V107.204C128.6 107.417 128.565 107.624 128.536 107.837C128.533 107.862 128.533 107.889 128.536 107.915C128.502 108.148 128.472 108.385 128.448 108.622V108.671C128.448 108.888 128.413 109.101 128.398 109.313C128.398 109.382 128.398 109.451 128.398 109.52C128.398 109.693 128.398 109.861 128.398 110.014C128.398 110.078 128.398 110.147 128.398 110.216C128.398 110.286 128.398 110.33 128.398 110.389C128.398 110.449 128.398 110.572 128.398 110.661C128.422 111.401 128.495 112.138 128.614 112.868C129.428 117.677 133.794 120.882 138.364 120.032C139.968 119.731 141.446 118.96 142.616 117.815C143.08 117.363 143.668 117.059 144.303 116.943C144.939 116.828 145.594 116.904 146.187 117.164C147.66 117.812 149.294 117.999 150.875 117.702C155.289 116.887 158.232 112.626 157.765 108.034C157.71 107.856 157.668 107.67 157.638 107.476Z" fill="#364153"/>
</g>
</g>
</svg>
